src/icons/IconIntroduction/IconIntroduction_size_xs.svg

<svg viewBox="0 0 12 12" xmlns="http://www.w3.org/2000/svg">
  <path d="M11 1H10V11H11V1Z" />
  <path
    d="M1 6.50105H7.29332L4.92845 8.85874L5.63555 9.56584L9.20753 6.00105L5.66913 2.46094L4.96202 3.16804L7.29331 5.50105H1V6.50105Z"
  />
</svg>

<svg viewBox="0 0 12 12" xmlns="http://www.w3.org/2000/svg">
  <path
    d="M11 1h-1v10h1V1zM1 6.501h6.293L4.928 8.86l.708.707L9.208 6l-3.539-3.54-.707.707 2.331 2.333H1v1z"
  />
</svg>
